X: 43075
T: Wind That Shakes The Barley, The
R: reel
M: 4/4
K: Dmajor
|:FAAB AFED|B2BAB2d2|FAAB AFED|1 gfedB2d2:|2 gfedB2de||
f2fdg2ge|f2fd Bcde|f2fdg2gb|afedB2de|
f2fdg2ge|f2fd Bcde|fafd gbge|afedB2d2||

